X: 33429
T: Quinn's
R: jig
M: 6/8
K: Gmajor
|:GBB BAB|c2A ABc|dBG GFG|ABG FED|
GBB BAB|c2A ABc|dcA AGF|G3 G2D:|
|:GBd efg|fag e2d|BAB GFG|ABG FED|
GBd efg|fag e2d|BAB GFG|AGF G2D:|

